src/img/icons/logo_1.svg

<svg width="106" height="40" viewBox="0 0 106 40" fill="none" xmlns="http://www.w3.org/2000/svg">
<g clip-path="url(#clip0_21_1644)">
<path fill-rule="evenodd" clip-rule="evenodd" d="M52.5899 12.8525L45.9412 15.6066C46.872 14.0984 47.9358 12.1967 48.2683 10.2295C41.0877 11.2131 36.1676 14.5574 32.2449 20.6557L27.5908 18.4262C30.3168 14.0328 33.7741 10.6229 38.5612 8.32787C37.3644 7.01639 35.5693 5.63934 33.8406 4.85246C31.846 5.96721 30.0508 7.34426 29.0535 8.59016C29.9179 9.18033 30.7822 9.83607 31.58 10.623C30.3168 11.6721 29.253 12.7869 28.3887 14.0328C25.7957 11.6066 23.1362 10.1639 19.2799 9.18033C19.3464 11.1475 20.0113 13.3115 20.8756 15.1475L14.8918 12.6557C14.3599 9.77049 14.4929 6.88525 15.0913 4C18.6151 4.19672 21.8729 4.91803 24.7984 6.22951C27.4578 3.27869 29.8514 1.5082 33.8406 0C37.6304 1.31148 40.6223 3.21311 43.3482 6.55738C46.7391 5.63934 49.7975 5.31147 53.2548 5.18033C53.3878 7.93443 53.2548 10.4262 52.5899 12.8525Z" fill="#ED6E77"/>
<path fill-rule="evenodd" clip-rule="evenodd" d="M23.0053 27.4746L22.8723 23.1468L33.8427 28.9828L44.813 23.0812V27.3435L33.9092 33.9664L23.0053 27.4746ZM32.9119 39.4091L19.1491 30.3599C18.6836 30.032 18.3512 29.573 18.3512 28.9173L18.1517 19.6714C17.2209 18.491 16.0242 16.9173 15.4258 15.0156L33.9092 23.3435C40.2254 20.3927 44.7465 18.2943 51.7277 15.2779C51.3952 15.9992 50.265 18.1632 49.6666 18.8845V28.7205C49.6666 29.3107 49.4006 29.8353 48.8687 30.1632C43.9487 33.2451 39.76 36.3271 34.84 39.3435C34.2416 39.8025 33.5102 39.8025 32.9119 39.4091Z" fill="#AE9BA5"/>
<path d="M105.516 23.0824C105.516 22.4922 105.383 21.902 105.184 21.3774C104.851 20.5905 104.253 20.0004 103.455 19.5414C102.258 18.8201 100.131 18.4922 97.2055 18.4922H97.139C94.2136 18.4922 92.086 18.8201 90.8892 19.5414C90.0914 20.0004 89.493 20.5905 89.1606 21.3774C88.8946 21.902 88.8281 22.4922 88.8281 23.2135C88.8281 23.9348 88.9611 24.525 89.227 24.984C89.6924 25.8364 90.4238 26.4266 91.2881 26.8201C91.6871 27.0168 92.2854 27.1479 92.8838 27.2791C93.5487 27.4102 94.2136 27.4758 94.812 27.4758C95.4103 27.5414 96.2082 27.5414 97.139 27.6069L99.732 27.7381C100.131 27.7381 100.264 27.8037 100.596 27.9348C100.929 28.066 101.128 28.2627 101.128 28.5905C101.195 29.1807 100.729 29.5742 99.865 29.7709C99.2666 29.902 98.4022 29.9676 97.2055 29.9676H97.139C95.8757 29.9676 95.0114 29.902 94.413 29.7709C94.0141 29.7053 93.6817 29.5086 93.4822 29.3119C93.2828 29.1151 93.2163 28.8528 93.2163 28.3938V28.3283H88.8281V28.6561C88.8281 29.3119 88.9611 29.8364 89.1606 30.361C89.493 31.1479 90.0914 31.7381 90.8892 32.1971C92.086 32.9184 94.2136 33.2463 97.139 33.2463H97.2055C100.131 33.2463 102.192 32.9184 103.455 32.1315C104.253 31.6725 104.851 31.0824 105.184 30.2955C105.45 29.7709 105.516 29.1151 105.516 28.4594C105.516 27.7381 105.383 27.1479 105.117 26.6889C104.652 25.7709 103.921 25.1807 103.056 24.8528C102.657 24.6561 102.126 24.525 101.461 24.3938C100.796 24.2627 100.197 24.1971 99.5325 24.1315C98.9341 24.066 98.1363 24.066 97.139 24.066L94.6125 23.9348C94.2136 23.8692 94.0806 23.8692 93.7482 23.7381C93.4157 23.6725 93.2163 23.4102 93.1498 23.1479C93.0833 22.5578 93.4157 22.1643 94.2801 21.9676C94.8784 21.8364 95.7428 21.7709 96.9395 21.7709H97.139C98.4023 21.7709 99.2666 21.8364 99.865 21.9676C100.33 22.0332 100.596 22.2299 100.796 22.4266C100.995 22.5578 101.062 22.8856 101.062 23.3446V23.4102H105.45L105.516 23.0824Z" fill="#AE9BA5"/>
<path d="M86.6348 22.5435V19.1992H72.1406V33.1664H86.6348V29.8222H76.3958V27.855H85.7705V24.5107H76.3958V22.5435H86.6348Z" fill="#AE9BA5"/>
<path d="M69.9438 18.9531H64.2924L60.9016 22.7564L57.5108 18.9531H51.8594L58.0427 25.9039L51.8594 32.9203H57.5108L60.9016 29.1171L64.2924 32.9203H69.9438L63.6941 25.9039L69.9438 18.9531Z" fill="#AE9BA5"/>
<path d="M10.239 22.2974C10.8374 22.2974 11.3028 22.6908 11.3028 23.281C11.3028 23.8712 10.8374 24.2646 10.239 24.2646H4.25517V22.2974H10.239ZM10.7044 29.5761H4.25517V27.6089H10.7044C11.3028 27.6089 11.8347 27.9367 11.8347 28.5925C11.8347 29.1826 11.3028 29.5761 10.7044 29.5761ZM15.2255 21.5761C15.0261 21.0515 14.6936 20.5925 14.2947 20.199C13.8958 19.8056 13.4304 19.4777 12.8985 19.281C12.3666 19.0843 11.6352 18.9531 10.7044 18.9531H0V32.9203H11.1698C12.1006 32.9203 12.832 32.7892 13.3639 32.5925C13.8958 32.3958 14.3612 32.0679 14.7601 31.6744C15.159 31.281 15.425 30.822 15.6909 30.2974C16.0898 29.3794 16.0898 28.4613 15.7574 27.5433C15.425 26.6253 14.9596 25.9695 14.2947 25.6416C14.5606 25.4449 14.8266 25.1171 15.0261 24.7892C15.2255 24.3957 15.3585 23.9367 15.425 23.4121C15.6244 22.7564 15.4915 22.1662 15.2255 21.5761Z" fill="#AE9BA5"/>
</g>
<defs>
<clipPath id="clip0_21_1644">
<rect width="106" height="40" fill="white"/>
</clipPath>
</defs>
</svg>

<svg xmlns="http://www.w3.org/2000/svg" width="106" height="40" fill="none">
  <g clip-path="url(#a)">
    <path fill="#ED6E77" fill-rule="evenodd" d="m52.59 12.852-6.649 2.755c.931-1.509 1.995-3.41 2.327-5.377-7.18.983-12.1 4.327-16.023 10.426l-4.654-2.23c2.726-4.393 6.183-7.803 10.97-10.098-1.197-1.312-2.992-2.689-4.72-3.476-1.995 1.115-3.79 2.492-4.788 3.738.865.59 1.73 1.246 2.527 2.033-1.263 1.05-2.327 2.164-3.191 3.41-2.593-2.426-5.253-3.87-9.11-4.853.067 1.968.732 4.132 1.597 5.968l-5.984-2.492c-.532-2.886-.4-5.77.2-8.656 3.523.197 6.78.918 9.706 2.23 2.66-2.951 5.053-4.722 9.043-6.23 3.79 1.311 6.781 3.213 9.507 6.557 3.391-.918 6.45-1.246 9.907-1.377.133 2.754 0 5.246-.665 7.672Z" clip-rule="evenodd"/>
    <path fill="#AE9BA5" fill-rule="evenodd" d="m23.005 27.475-.133-4.328 10.97 5.836 10.971-5.902v4.262l-10.904 6.623-10.904-6.491Zm9.907 11.934-13.763-9.05c-.465-.327-.798-.786-.798-1.442l-.2-9.246c-.93-1.18-2.127-2.754-2.725-4.655l18.483 8.327c6.316-2.95 10.837-5.049 17.819-8.065-.333.721-1.463 2.885-2.061 3.606v9.837a1.64 1.64 0 0 1-.798 1.442c-4.92 3.082-9.109 6.164-14.029 9.18-.598.46-1.33.46-1.928.066Z" clip-rule="evenodd"/>
    <path fill="#AE9BA5" d="M105.516 23.082c0-.59-.133-1.18-.332-1.705-.333-.787-.931-1.377-1.729-1.836-1.197-.72-3.324-1.049-6.25-1.049h-.066c-2.925 0-5.053.328-6.25 1.05-.798.458-1.396 1.048-1.728 1.835-.266.525-.333 1.115-.333 1.837 0 .72.133 1.311.399 1.77.465.852 1.197 1.443 2.061 1.836.4.197.997.328 1.596.46.665.13 1.33.196 1.928.196.598.065 1.396.065 2.327.13l2.593.132c.399 0 .532.066.864.197.333.131.532.328.532.655.067.59-.399.984-1.263 1.18-.598.132-1.463.198-2.66.198h-.066c-1.263 0-2.128-.066-2.726-.197a1.77 1.77 0 0 1-.93-.46c-.2-.196-.267-.458-.267-.917v-.066h-4.388v.328c0 .656.133 1.18.333 1.705.332.787.93 1.377 1.728 1.836 1.197.721 3.325 1.05 6.25 1.05h.067c2.925 0 4.986-.329 6.249-1.115.798-.46 1.396-1.05 1.729-1.836.266-.525.332-1.18.332-1.837 0-.72-.133-1.311-.399-1.77-.465-.918-1.196-1.508-2.061-1.836-.399-.197-.93-.328-1.595-.46a19.487 19.487 0 0 0-1.928-.262c-.599-.065-1.397-.065-2.394-.065l-2.526-.131c-.4-.066-.532-.066-.865-.197a.78.78 0 0 1-.598-.59c-.067-.59.266-.984 1.13-1.18.598-.132 1.463-.197 2.66-.197h.199c1.263 0 2.128.065 2.726.197.465.065.731.262.931.459.199.13.266.459.266.918v.065h4.388l.066-.328ZM86.635 22.544v-3.345H72.14v13.967h14.494v-3.344h-10.24v-1.967h9.376v-3.344h-9.375v-1.967h10.239ZM69.944 18.953h-5.652l-3.39 3.803-3.391-3.803h-5.652l6.184 6.95-6.184 7.017h5.652l3.39-3.803 3.391 3.803h5.652l-6.25-7.016 6.25-6.95ZM10.239 22.297c.598 0 1.064.394 1.064.984s-.466.984-1.064.984H4.255v-1.968h5.984Zm.465 7.28H4.255v-1.968h6.45c.598 0 1.13.328 1.13.983 0 .59-.532.984-1.13.984Zm4.521-8c-.199-.526-.531-.985-.93-1.378a3.964 3.964 0 0 0-1.396-.918c-.532-.197-1.264-.328-2.195-.328H0V32.92h11.17c.93 0 1.662-.13 2.194-.328a3.963 3.963 0 0 0 1.396-.918c.399-.393.665-.852.93-1.377.4-.918.4-1.836.067-2.754-.332-.918-.797-1.573-1.462-1.901.266-.197.532-.525.731-.853.2-.393.332-.852.399-1.377.2-.656.066-1.246-.2-1.836Z"/>
  </g>
  <defs>
    <clipPath id="a">
      <path fill="#fff" d="M0 0h106v40H0z"/>
    </clipPath>
  </defs>
</svg>
